admin/src/theme/img/ownLocation.svg

<svg width="26" height="26" viewBox="0 0 26 26" xmlns="http://www.w3.org/2000/svg">
  <defs>
    <clipPath id="a">
      <path d="M1500 0v1024H0V0h1500Z"/>
    </clipPath>
    <clipPath id="b">
      <path d="M12.5719178 0c.1380712 0 .25.11192881.25.25v1.80479452c2.5022831.25570776 4.5844749 1.21461187 6.2465754 2.87671233 1.6621004 1.66210046 2.6210045 3.74429224 2.8767123 6.24657535H23.75c.1380712 0 .25.1119288.25.25v1.1438356c0 .1380712-.1119288.25-.25.25h-1.8047945c-.2557078 2.5022831-1.2146119 4.5844749-2.8767123 6.2465754-1.6621005 1.6621004-3.7442923 2.6210045-6.2465754 2.8767123V23.75c0 .1380712-.1119288.25-.25.25h-1.1438356c-.1380712 0-.25-.1119288-.25-.25v-1.8047945c-2.50228311-.2557078-4.58447489-1.2146119-6.24657535-2.8767123-1.66210046-1.6621005-2.62100457-3.7442923-2.87671233-6.2465754H.25c-.13807119 0-.25-.1119288-.25-.25v-1.1438356c0-.1380712.11192881-.25.25-.25h1.80479452c.25570776-2.50228311 1.21461187-4.58447489 2.87671233-6.24657535 1.66210046-1.66210046 3.74429224-2.62100457 6.24657535-2.87671233V.25c0-.13807119.1119288-.25.25-.25h1.1438356ZM12 3.67123288c-2.28310502 0-4.24200913.81735159-5.87671233 2.45205479C4.48858447 7.75799087 3.67123288 9.71689498 3.67123288 12c0 2.283105.81735159 4.2420091 2.45205479 5.8767123C7.75799087 19.5114155 9.71689498 20.3287671 12 20.3287671c2.283105 0 4.2420091-.8173516 5.8767123-2.4520548C19.5114155 16.2420091 20.3287671 14.283105 20.3287671 12c0-2.28310502-.8173516-4.24200913-2.4520548-5.87671233C16.2420091 4.48858447 14.283105 3.67123288 12 3.67123288Zm0 4.21917808c1.1506849 0 2.1232877.39726027 2.9178082 1.19178082C15.7123288 9.87671233 16.109589 10.8493151 16.109589 12s-.3972602 2.1232877-1.1917808 2.9178082C14.1232877 15.7123288 13.1506849 16.109589 12 16.109589c-1.1506849 0-2.12328767-.3972602-2.91780822-1.1917808C8.28767123 14.1232877 7.89041096 13.1506849 7.89041096 12c0-1.1506849.39726027-2.12328767 1.19178082-2.91780822C9.87671233 8.28767123 10.8493151 7.89041096 12 7.89041096Zm0 1.64383562c-.6940639 0-1.2785388.23744292-1.7534247.71232872-.4748858.4748859-.71232872 1.0593608-.71232872 1.7534247s.23744292 1.2785388.71232872 1.7534247c.4748859.4748858 1.0593608.7123287 1.7534247.7123287s1.2785388-.2374429 1.7534247-.7123287c.4748858-.4748859.7123287-1.0593608.7123287-1.7534247s-.2374429-1.2785388-.7123287-1.7534247C13.2785388 9.7716895 12.6940639 9.53424658 12 9.53424658Z"/>
    </clipPath>
  </defs>
  <g clip-path="url(#a)" transform="translate(-1419 -831)">
    <g clip-path="url(#b)" transform="translate(1420 832)">
      <path fill="#0063AF" d="M0 0h24v24H0V0z"/>
    </g>
    <path d="M1431.1780822 855.75v-1.8047945c-2.50228311-.2557078-4.58447489-1.2146119-6.24657535-2.8767123-1.66210046-1.6621005-2.62100457-3.7442923-2.87671233-6.2465754H1420.25c-.13807119 0-.25-.1119288-.25-.25v-1.1438356c0-.1380712.11192881-.25.25-.25h1.80479452c.25570776-2.50228311 1.21461187-4.58447489 2.87671233-6.24657535 1.66210046-1.66210046 3.74429224-2.62100457 6.24657535-2.87671233V832.25c0-.13807119.1119288-.25.25-.25h1.1438356c.1380712 0 .25.11192881.25.25v1.80479452c2.5022831.25570776 4.5844749 1.21461187 6.2465754 2.87671233 1.6621004 1.66210046 2.6210045 3.74429224 2.8767123 6.24657535H1443.75c.1380712 0 .25.1119288.25.25v1.1438356c0 .1380712-.1119288.25-.25.25h-1.8047945c-.2557078 2.5022831-1.2146119 4.5844749-2.8767123 6.2465754-1.6621005 1.6621004-3.7442923 2.6210045-6.2465754 2.8767123V855.75c0 .1380712-.1119288.25-.25.25h-1.1438356c-.1380712 0-.25-.1119288-.25-.25ZM1432 852.3287671c2.283105 0 4.2420091-.8173516 5.8767123-2.4520548 1.6347032-1.6347032 2.4520548-3.5936073 2.4520548-5.8767123 0-2.28310502-.8173516-4.24200913-2.4520548-5.87671233-1.6347032-1.6347032-3.5936073-2.45205479-5.8767123-2.45205479-2.28310502 0-4.24200913.81735159-5.87671233 2.45205479-1.6347032 1.6347032-2.45205479 3.59360731-2.45205479 5.87671233 0 2.283105.81735159 4.2420091 2.45205479 5.8767123 1.6347032 1.6347032 3.59360731 2.4520548 5.87671233 2.4520548Zm0-4.2191781c-1.1506849 0-2.12328767-.3972602-2.91780822-1.1917808-.79452055-.7945205-1.19178082-1.7671233-1.19178082-2.9178082 0-1.1506849.39726027-2.12328767 1.19178082-2.91780822.79452055-.79452055 1.76712332-1.19178082 2.91780822-1.19178082s2.1232877.39726027 2.9178082 1.19178082c.7945206.79452055 1.1917808 1.76712332 1.1917808 2.91780822s-.3972602 2.1232877-1.1917808 2.9178082c-.7945205.7945206-1.7671233 1.1917808-2.9178082 1.1917808Zm0-1.6438356c.6940639 0 1.2785388-.2374429 1.7534247-.7123287.4748858-.4748859.7123287-1.0593608.7123287-1.7534247s-.2374429-1.2785388-.7123287-1.7534247c-.4748859-.4748858-1.0593608-.71232872-1.7534247-.71232872s-1.2785388.23744292-1.7534247.71232872c-.4748858.4748859-.71232872 1.0593608-.71232872 1.7534247s.23744292 1.2785388.71232872 1.7534247c.4748859.4748858 1.0593608.7123287 1.7534247.7123287Z" stroke="#0063AF" fill="none" stroke-miterlimit="10"/>
  </g>
</svg>

<?xml version="1.0" encoding="UTF-8"?><svg version="1.1" width="26px" height="26px" viewBox="0 0 26.0 26.0" xmlns="http://www.w3.org/2000/svg" xmlns:xlink="http://www.w3.org/1999/xlink"><defs><clipPath id="i0"><path d="M1500,0 L1500,1024 L0,1024 L0,0 L1500,0 Z"></path></clipPath><clipPath id="i1"><path d="M12.5719178,0 C12.709989,-2.53632657e-17 12.8219178,0.111928813 12.8219178,0.25 L12.8219178,2.05479452 C15.3242009,2.31050228 17.4063927,3.26940639 19.0684932,4.93150685 C20.7305936,6.59360731 21.6894977,8.67579909 21.9452055,11.1780822 L23.75,11.1780822 C23.8880712,11.1780822 24,11.290011 24,11.4280822 L24,12.5719178 C24,12.709989 23.8880712,12.8219178 23.75,12.8219178 L21.9452055,12.8219178 C21.6894977,15.3242009 20.7305936,17.4063927 19.0684932,19.0684932 C17.4063927,20.7305936 15.3242009,21.6894977 12.8219178,21.9452055 L12.8219178,23.75 C12.8219178,23.8880712 12.709989,24 12.5719178,24 L11.4280822,24 C11.290011,24 11.1780822,23.8880712 11.1780822,23.75 L11.1780822,21.9452055 C8.67579909,21.6894977 6.59360731,20.7305936 4.93150685,19.0684932 C3.26940639,17.4063927 2.31050228,15.3242009 2.05479452,12.8219178 L0.25,12.8219178 C0.111928813,12.8219178 7.2419995e-17,12.709989 0,12.5719178 L0,11.4280822 C9.64145949e-16,11.290011 0.111928813,11.1780822 0.25,11.1780822 L2.05479452,11.1780822 C2.31050228,8.67579909 3.26940639,6.59360731 4.93150685,4.93150685 C6.59360731,3.26940639 8.67579909,2.31050228 11.1780822,2.05479452 L11.1780822,0.25 C11.1780822,0.111928813 11.290011,1.06192921e-15 11.4280822,0 L12.5719178,0 Z M12,3.67123288 C9.71689498,3.67123288 7.75799087,4.48858447 6.12328767,6.12328767 C4.48858447,7.75799087 3.67123288,9.71689498 3.67123288,12 C3.67123288,14.283105 4.48858447,16.2420091 6.12328767,17.8767123 C7.75799087,19.5114155 9.71689498,20.3287671 12,20.3287671 C14.283105,20.3287671 16.2420091,19.5114155 17.8767123,17.8767123 C19.5114155,16.2420091 20.3287671,14.283105 20.3287671,12 C20.3287671,9.71689498 19.5114155,7.75799087 17.8767123,6.12328767 C16.2420091,4.48858447 14.283105,3.67123288 12,3.67123288 Z M12,7.89041096 C13.1506849,7.89041096 14.1232877,8.28767123 14.9178082,9.08219178 C15.7123288,9.87671233 16.109589,10.8493151 16.109589,12 C16.109589,13.1506849 15.7123288,14.1232877 14.9178082,14.9178082 C14.1232877,15.7123288 13.1506849,16.109589 12,16.109589 C10.8493151,16.109589 9.87671233,15.7123288 9.08219178,14.9178082 C8.28767123,14.1232877 7.89041096,13.1506849 7.89041096,12 C7.89041096,10.8493151 8.28767123,9.87671233 9.08219178,9.08219178 C9.87671233,8.28767123 10.8493151,7.89041096 12,7.89041096 Z M12,9.53424658 C11.3059361,9.53424658 10.7214612,9.7716895 10.2465753,10.2465753 C9.7716895,10.7214612 9.53424658,11.3059361 9.53424658,12 C9.53424658,12.6940639 9.7716895,13.2785388 10.2465753,13.7534247 C10.7214612,14.2283105 11.3059361,14.4657534 12,14.4657534 C12.6940639,14.4657534 13.2785388,14.2283105 13.7534247,13.7534247 C14.2283105,13.2785388 14.4657534,12.6940639 14.4657534,12 C14.4657534,11.3059361 14.2283105,10.7214612 13.7534247,10.2465753 C13.2785388,9.7716895 12.6940639,9.53424658 12,9.53424658 Z"></path></clipPath></defs><g transform="translate(-1419.0 -831.0)"><g clip-path="url(#i0)"><g transform="translate(1412.0 768.0)"><g transform="translate(0.0 56.0)"><g transform="translate(8.0 8.0)"><g clip-path="url(#i1)"><polygon points="0,0 24,0 24,24 0,24 0,0" stroke="none" fill="#0063AF"></polygon></g><path d="M11.1780822,23.75 L11.1780822,21.9452055 L11.1780822,21.9452055 C8.67579909,21.6894977 6.59360731,20.7305936 4.93150685,19.0684932 C3.26940639,17.4063927 2.31050228,15.3242009 2.05479452,12.8219178 L0.25,12.8219178 C0.111928813,12.8219178 7.2419995e-17,12.709989 0,12.5719178 L0,11.4280822 C9.64145949e-16,11.290011 0.111928813,11.1780822 0.25,11.1780822 L2.05479452,11.1780822 L2.05479452,11.1780822 C2.31050228,8.67579909 3.26940639,6.59360731 4.93150685,4.93150685 C6.59360731,3.26940639 8.67579909,2.31050228 11.1780822,2.05479452 L11.1780822,0.25 C11.1780822,0.111928813 11.290011,1.06192921e-15 11.4280822,0 L12.5719178,0 C12.709989,-2.53632657e-17 12.8219178,0.111928813 12.8219178,0.25 L12.8219178,2.05479452 L12.8219178,2.05479452 C15.3242009,2.31050228 17.4063927,3.26940639 19.0684932,4.93150685 C20.7305936,6.59360731 21.6894977,8.67579909 21.9452055,11.1780822 L23.75,11.1780822 C23.8880712,11.1780822 24,11.290011 24,11.4280822 L24,12.5719178 C24,12.709989 23.8880712,12.8219178 23.75,12.8219178 L21.9452055,12.8219178 L21.9452055,12.8219178 C21.6894977,15.3242009 20.7305936,17.4063927 19.0684932,19.0684932 C17.4063927,20.7305936 15.3242009,21.6894977 12.8219178,21.9452055 L12.8219178,23.75 C12.8219178,23.8880712 12.709989,24 12.5719178,24 L11.4280822,24 C11.290011,24 11.1780822,23.8880712 11.1780822,23.75 Z M12,20.3287671 C14.283105,20.3287671 16.2420091,19.5114155 17.8767123,17.8767123 C19.5114155,16.2420091 20.3287671,14.283105 20.3287671,12 C20.3287671,9.71689498 19.5114155,7.75799087 17.8767123,6.12328767 C16.2420091,4.48858447 14.283105,3.67123288 12,3.67123288 C9.71689498,3.67123288 7.75799087,4.48858447 6.12328767,6.12328767 C4.48858447,7.75799087 3.67123288,9.71689498 3.67123288,12 C3.67123288,14.283105 4.48858447,16.2420091 6.12328767,17.8767123 C7.75799087,19.5114155 9.71689498,20.3287671 12,20.3287671 L12,20.3287671 Z M12,16.109589 C10.8493151,16.109589 9.87671233,15.7123288 9.08219178,14.9178082 C8.28767123,14.1232877 7.89041096,13.1506849 7.89041096,12 C7.89041096,10.8493151 8.28767123,9.87671233 9.08219178,9.08219178 C9.87671233,8.28767123 10.8493151,7.89041096 12,7.89041096 C13.1506849,7.89041096 14.1232877,8.28767123 14.9178082,9.08219178 C15.7123288,9.87671233 16.109589,10.8493151 16.109589,12 C16.109589,13.1506849 15.7123288,14.1232877 14.9178082,14.9178082 C14.1232877,15.7123288 13.1506849,16.109589 12,16.109589 L12,16.109589 Z M12,14.4657534 C12.6940639,14.4657534 13.2785388,14.2283105 13.7534247,13.7534247 C14.2283105,13.2785388 14.4657534,12.6940639 14.4657534,12 C14.4657534,11.3059361 14.2283105,10.7214612 13.7534247,10.2465753 C13.2785388,9.7716895 12.6940639,9.53424658 12,9.53424658 C11.3059361,9.53424658 10.7214612,9.7716895 10.2465753,10.2465753 C9.7716895,10.7214612 9.53424658,11.3059361 9.53424658,12 C9.53424658,12.6940639 9.7716895,13.2785388 10.2465753,13.7534247 C10.7214612,14.2283105 11.3059361,14.4657534 12,14.4657534 Z" stroke="#0063AF" stroke-width="1" fill="none" stroke-miterlimit="10"></path></g></g></g></g></g></svg>
